static/assets/images/exchanges/mexc.svg

<svg width="418" height="256" viewBox="0 0 418 256" fill="none" xmlns="http://www.w3.org/2000/svg">
<path d="M411.062 180.783L320.759 24.4501C300.963 -8.13708 252.693 -8.48856 233.589 25.831L138.772 188.403C121.064 218.216 142.947 255.649 178.364 255.649H368.338C404.107 255.649 430.845 217.174 411.062 180.783Z" fill="#1C56C8"/>
<path d="M280.821 192.909L275.275 183.206C270.055 174.193 258.598 154.786 258.598 154.786L182.193 22.3659C162.397 -7.09563 115.511 -9.51833 95.7145 27.5628L6.79593 181.122C-11.6041 213.358 10.2797 255.309 50.2239 255.648H367.652C318.678 256 303.057 230.693 280.821 192.909Z" fill="#3A8EF7"/>
<path d="M280.821 192.909L275.275 183.206C270.055 174.193 258.598 154.786 258.598 154.786L209.281 68.1213L138.435 188.754C120.714 218.567 142.598 256 178.027 256H367.649C318.335 255.649 303.057 230.693 280.821 192.909Z" fill="url(#paint0_linear_9883_898)"/>
<defs>
<linearGradient id="paint0_linear_9883_898" x1="113.218" y1="133.936" x2="332.597" y2="215.162" gradientUnits="userSpaceOnUse">
<stop stop-color="#1C56C8" stop-opacity="0"/>
<stop offset="1" stop-color="#1C56C8"/>
</linearGradient>
</defs>
</svg>

<svg xmlns="http://www.w3.org/2000/svg" fill="none" viewBox="0 0 418 256"><path fill="#1C56C8" d="M411.062 180.783 320.759 24.45c-19.796-32.587-68.066-32.939-87.17 1.381l-94.817 162.572c-17.708 29.813 4.175 67.246 39.592 67.246h189.974c35.769 0 62.507-38.475 42.724-74.866"/><path fill="#3A8EF7" d="m280.821 192.909-5.546-9.703c-5.22-9.013-16.677-28.42-16.677-28.42l-76.405-132.42c-19.796-29.462-66.682-31.884-86.479 5.197L6.796 181.122c-18.4 32.236 3.484 74.187 43.428 74.526h317.428c-48.974.352-64.595-24.955-86.831-62.739"/><path fill="url(#paint0_linear_9883_898)" d="m280.821 192.909-5.546-9.703c-5.22-9.013-16.677-28.42-16.677-28.42l-49.317-86.665-70.846 120.633C120.714 218.567 142.598 256 178.027 256h189.622c-49.314-.351-64.592-25.307-86.828-63.091"/><defs><linearGradient id="paint0_linear_9883_898" x1="113.218" x2="332.597" y1="133.936" y2="215.162" gradientUnits="userSpaceOnUse"><stop stop-color="#1C56C8" stop-opacity="0"/><stop offset="1" stop-color="#1C56C8"/></linearGradient></defs></svg>
